!!!!SEGMENT: pl-sa--l-1636--005_anonim--preludium.krn
!!!cenid: 17xx:712
!!!COM: Anonim
!!!COM-rismID: pe30004985
!!!CDT:
!!!CNT:
!!!OTL: Preludium
!!!PDT:
!!!AGN: Secular; Prelude
!!!SMS-siglum: PL-SA
!!!SMS-shelfmark: L 1636
!!!SMS-shelfwork: 005 W
!!!SMS-variant:
!!!SMS-altvar:
!!!NIFC-rismSourceID: 1001076314
!!!NIFC-rismChildID: 1001076314
!!!NIFC-islandoraID:
!!!URL-pdf-islandora:
!!!URL-scan:
!!!IIIF:
!!!ONB-nifc: 2r, skan 0005, s. 1-2
!!!AIN: 2 empty
!!!key:
**kern	**kern
*part2	*part1
*staff2	*staff1
*Iempty	*Iempty
*I"	*I"
*clefF4	*clefC1
*k[]	*k[]
*C:	*C:
*M2/2	*M2/2
*met(c|)	*met(c|)
=1	=1
*all\right	*all\right
1C 1GG 1CC	1cc 1g 1e
=2	=2
1C 1GG 1CC	16r
.	16ee\LL
.	16cc\
.	16dd\JJ
!	!LO:TX:a:t=P:problem=mixed beam
.	16ee\LL
.	16g/
.	16a/
.	16b/JJ
.	16cc\LL
.	16dd\
.	16ee\
.	16cc\JJ
.	16ff\LL
.	16ee\
.	16gg\
.	16ff\JJ
=3	=3
16r	1ee 1cc 1g
16G\LL	.
16A\	.
16B\JJ	.
16c\LL	.
16E\	.
16F\	.
16G\JJ	.
16C/LL	.
16D/	.
16E/	.
16F/JJ	.
16G\LL	.
16A\	.
16B\	.
16G\JJ	.
=4	=4
*^	*
[4c/	4F\	8a\L
.	.	8b\J
4c/_	4E\	4cc\
*	*2\right	*
4c/]	2D\	2ff/
4B/	.	.
=5	=5	=5
[2c/	4.E\	8ff\L
.	.	8ee\J
.	.	4.ee\
.	8F\	.
8c/L]	2G\	.
16B/L	.	16dd\LL
16A/JJ	.	16cc\JJ
4B/	.	4dd\
*v	*v	*
!!LO:LB:g=original
=6	=6
*	*2\right
4c\	2cc\
4A\	.
4F\	4a\
4A\	[4f/
=7	=7
*	*^
4B\	2g/	4f\]
4c\	.	[4e\
4A\	2f/	4e\]
4B\	.	[4d\
=8	=8	=8
4G\	2e/	4d\]
4A\	.	[4c\
4F\	2d/	4c\]
8G\L	.	4B\
8F\J	.	.
*	*v	*v
=9	=9
*^	*
8E\L	4ryy	4.c/
8D\J	.	.
[4C/	4ryy	.
.	.	8d/
[2G/	4C\]	8e/L
!	!	!LO:TX:b:t=P:problem=♯ below
.	.	8f#X/J
.	4BB\	4g\
=10	=10	=10
4G/]	2AA\	8a\L
.	.	8b\
4F#X/	.	8cc\
.	.	8a\J
4G/	[2GG\	8b\L
.	.	8g\J
4E/	.	[<4cc\
=11	=11	=11
*	*	*^
2D/	2GG\]	2dd/	4cc\]
.	.	.	4b\
!LO:TX:a:t=P:||:problem=kreska taktowa 	!	!LO:TX:a:t=P:||:problem=kreska taktowa 	!
2C 2GG/	2CC/	2cc/	2g 2e/
*v	*v	*	*
*	*v	*v
==	==
*-	*-
!!!system-decoration: [(s1,s2)]
!!!RDF**kern: < = below
!!!ENC: Marta Lawrence
!!!END: 2020-12-07
!!!ENC: Andrzej Borzym
!!!END: 2020-06-11
!!!YEC: Copyright 2022 Narodowy Instytut Fryderyka Chopina (https://polishscores.org)
!!!YEM: License CC-BY-4.0 (https://creativecommons.org/licenses/by/4.0)
